X: 15
T: Kerfunten, The
C: Hammy Hamilton
Z: methylDragon
S: https://thesession.org/tunes/139#setting52641
R: jig
M: 6/8
L: 1/8
K: Gmaj
||:B2B BAG|d2d efg|d2d edB|A2 A AGA |
B2B BAG|d2d efg|d2d edB|AGF G2A :||
||:g2g gab|e2e ede|g2g gab|bag abPa|
g2g gab|e2e ede|dBg dcB|AGF G3:|

%-------------------- TUNE SEPARATOR --------------------%

